images/ecommerce.svg

<svg width="64" height="64" viewBox="0 0 64 64" fill="none" xmlns="http://www.w3.org/2000/svg">
<path d="M23.7339 28.125C24.8379 28.125 25.7339 27.229 25.7339 26.125V18.325C25.7339 14.838 28.5709 12 32.0579 12C35.5449 12 38.3829 14.838 38.3829 18.325V26.125C38.3829 27.229 39.2779 28.125 40.3829 28.125C41.4869 28.125 42.3829 27.229 42.3829 26.125V18.325C42.3839 12.632 37.7519 8 32.0579 8C26.3659 8 21.7339 12.632 21.7339 18.325V26.125C21.7339 27.229 22.6299 28.125 23.7339 28.125Z" fill="url(#paint0_linear_22728_11376)"/>
<path d="M55 23.6328H44.384V26.1268C44.384 28.3328 42.59 30.1268 40.384 30.1268C38.178 30.1268 36.384 28.3328 36.384 26.1268V23.6328H27.735V26.1268C27.735 28.3328 25.941 30.1268 23.735 30.1268C21.529 30.1268 19.735 28.3328 19.735 26.1268V23.6328H8.99997C8.44797 23.6328 8.10697 24.0678 8.23797 24.6038L15.236 53.1008C15.658 54.7028 17.344 56.0018 19 56.0018H45C46.658 56.0018 48.342 54.7028 48.766 53.1008L55.762 24.6038C55.893 24.0668 55.553 23.6328 55 23.6328Z" fill="url(#paint1_linear_22728_11376)"/>
<path d="M28.6001 34.4C28.6001 33.6265 29.2266 33 30.0001 33C30.7736 33 31.4001 33.6265 31.4001 34.4V41.35L31.4001 40C31.4001 39.2265 32.0266 38.6 32.8001 38.6C33.5736 38.6 34.2001 39.2265 34.2001 40V41.6764C34.2127 40.9141 34.8346 39.3 35.6 39.3C36.3731 39.3 36.9999 39.9268 37 40.7C37 40.7 37.0411 41.7411 37.1332 41.8033C37.3572 41.3285 37.8402 40 38.4 40C39.1732 40 39.8 40.6268 39.8 41.4V48.4C39.8 49.9463 38.5463 51.2 37 51.2H32.3198C30.8344 51.2 29.4099 50.6099 28.3599 49.5599L26.15 47.35L23 45.9402C23.0051 44.6033 24.0526 44.2 25.1 44.2C26.0023 44.2 26.8136 44.3407 28.6 45.25L28.6001 34.4Z" fill="white"/>
<defs>
<linearGradient id="paint0_linear_22728_11376" x1="32.0584" y1="8" x2="32.0584" y2="28.125" gradientUnits="userSpaceOnUse">
<stop stop-color="#EF8080"/>
<stop offset="1" stop-color="#F0145A"/>
</linearGradient>
<linearGradient id="paint1_linear_22728_11376" x1="32" y1="23.6328" x2="32" y2="56.0018" gradientUnits="userSpaceOnUse">
<stop stop-color="#EF8080"/>
<stop offset="1" stop-color="#F0145A"/>
</linearGradient>
</defs>
</svg>

<svg xmlns="http://www.w3.org/2000/svg" width="64" height="64" fill="none"><path fill="url(#a)" d="M23.734 28.125a2 2 0 0 0 2-2v-7.8A6.332 6.332 0 0 1 32.058 12a6.333 6.333 0 0 1 6.325 6.325v7.8a2 2 0 0 0 4 0v-7.8C42.383 12.632 37.752 8 32.058 8c-5.692 0-10.324 4.632-10.324 10.325v7.8a2 2 0 0 0 2 2Z"/><path fill="url(#b)" d="M55 23.633H44.384v2.494c0 2.206-1.794 4-4 4s-4-1.794-4-4v-2.494h-8.649v2.494c0 2.206-1.794 4-4 4s-4-1.794-4-4v-2.494H9c-.552 0-.893.435-.762.97l6.998 28.498C15.658 54.703 17.344 56 19 56h26c1.658 0 3.342-1.298 3.766-2.9l6.996-28.497c.131-.537-.209-.971-.762-.971Z"/><path fill="#fff" d="M28.6 34.4a1.4 1.4 0 1 1 2.8 0v6.95V40a1.4 1.4 0 1 1 2.8 0v1.676c.013-.762.635-2.376 1.4-2.376a1.4 1.4 0 0 1 1.4 1.4s.041 1.041.133 1.103C37.357 41.33 37.84 40 38.4 40a1.4 1.4 0 0 1 1.4 1.4v7a2.8 2.8 0 0 1-2.8 2.8h-4.68a5.6 5.6 0 0 1-3.96-1.64l-2.21-2.21L23 45.94c.005-1.337 1.053-1.74 2.1-1.74.902 0 1.714.14 3.5 1.05V34.4Z"/><defs><linearGradient id="a" x1="32.058" x2="32.058" y1="8" y2="28.125" gradientUnits="userSpaceOnUse"><stop stop-color="#EF8080"/><stop offset="1" stop-color="#F0145A"/></linearGradient><linearGradient id="b" x1="32" x2="32" y1="23.633" y2="56.002" gradientUnits="userSpaceOnUse"><stop stop-color="#EF8080"/><stop offset="1" stop-color="#F0145A"/></linearGradient></defs></svg>
